!!!!SEGMENT: pl-kk--kk-i-6--023_anonim--grates-nunc-omnes.krn
!!!cenid: 16xx:978
!!!COM: Anonim
!!!COM-rismid: pe30004985
!!!CDT:
!!!CNT:
!!!OTL: Grates nunc omnes
!!!PDT:
!!!AGN: Sacred
!!!SMS-siglum: PL-Kk
!!!SMS-shelfmark: Kk.I.6
!!!SMS-shelfwork: 023 W
!!!SMS-variant:
!!!SMS-altvar:
!!!NIFC-rismid: 1001135887
!!!URL-scan: http://repozytorium.nifc.pl/skany/pl-kk-nut--i-6
!!!ONB-nifc: UWAGA: C (skan 0017, s. 30), T (skan 0120, s. 44-45), B (skan 0231, s. 42) Następny utwór: Missa
!!!key:
**kern	**text	**kern	**text	**kern	**text
*part3	*part3	*part2	*part2	*part1	*part1
*staff3	*staff3	*staff2	*staff2	*staff1	*staff1
*Iempty	*	*Itenor	*	*Ivox	*
*I"Baſsus.	*	*I"Tenor.	*	*I"Cantus.	*
*I'B	*	*I'T	*	*I'S	*
*clefF4	*	*clefC4	*	*clefC4	*
*k[]	*	*k[]	*	*k[]	*
*C:	*	*C:	*	*C:	*
*M2/1	*	*M2/1	*	*M2/1	*
*met(C|)	*	*met(C|)	*	*met(C|)	*
=1-	=1-	=1-	=1-	=1-	=1-
!LO:TX:a:t=P:problem= w źródle przed kluczem inicjał G	!	!LO:TX:a:t=P:problem= w źródle przed kluczem inicjał G	!	!LO:TX:a:t=P:problem= w źródle przed kluczem inicjał G	!
1F	Gra-	1c	Gra-	1F	GRa-
!	!	!LO:TX:t=P:problem=all\middle&colon; global	!	!LO:TX:t=P:global:problem=przecinki oddechowe jako rozdzielacze słów	!
2C/	-tes	2c\	.	1G,<	-tes
!LO:TX:t=P:problem=all\middle&colon; global	!	!	!	!	!
2E\	nunc	2B\	-tes	.	.
=2-	=2-	=2-	=2-	=2-	=2-
2D/	O-	2d\	nunc	1A,<	Nunc
2C/	.	2e\	O-	.	.
1D	.	1d	.	1A	Om-
=3-	=3-	=3-	=3-	=3-	=3-
2GG/	-mnes	2.B\	.	1G,<	-nes
2G\	red-	.	.	.	.
!	!	!LO:TX:t=P:problem=4\left or middle&colon; global	!	!	!
.	.	4c\	.	.	.
2D/	-da-	2d\	-mnes	1A	red-
1F\	.	1A\	red-	.	.
=4-	=4-	=4-	=4-	=4-	=4-
.	.	.	.	1c	-da-
!LO:TX:t=P:problem=4\left or middle&colon; global	!	!	!	!	!
4E\	.	4G/	.	.	.
*	*	*custos:G	*	*	*
4D/	.	4F/	.	.	.
*custos:D	*	*	*	*	*
!	!	!LO:LB:g=original	!	!	!
1C	-mus.	2G/	-da-	1c,<	-mus
.	.	2E/	-mus	.	.
!LO:LB:g=original	!	!	!	!	!
=5-	=5-	=5-	=5-	=5-	=5-
1D	Do-	1F	Do-	1A	Do-
*	*	*	*	*custos:c	*
2C/	-mi-	2G/	-mi-	1c	-mi-
2AA/	-no	2A/	-no	.	.
!	!	!	!	!LO:LB:g=original	!
=6-	=6-	=6-	=6-	=6-	=6-
1C	De-	1G	.	1c,<	-no
2FF/	-o	2A/	.	1c	De-
1F\	Qui	1A\	De-	.	.
=7-	=7-	=7-	=7-	=7-	=7-
.	.	.	.	1c,<	-o
2E\	.	2G/	-o	.	.
1D	Su-	2.A/	qui	1d,<	qui
.	.	4G/	.	.	.
=8-	=8-	=8-	=8-	=8-	=8-
1AA	-a	4A/	.	1c	Su-
.	.	4B\	.	.	.
.	.	1c	Su-	.	.
2rBB	.	.	.	1G,<	-a
2GG/	Na-	2B\	.	.	.
=9-	=9-	=9-	=9-	=9-	=9-
4AA/	-ti-	1A	-a	1c	Na-
4BB/	.	.	.	.	.
4C/	.	.	.	.	.
4D/	.	.	.	.	.
*	*	*custos:G	*	*	*
4E\	.	1G	Na-	1B	-ti-
4F\	.	.	.	.	.
2G\	.	.	.	.	.
!	!	!LO:LB:g=original	!	!	!
=10-	=10-	=10-	=10-	=10-	=10-
2E\	.	2G/	-ti-	1c	-ui-
2C/	-ui-	2G/	-ui-	.	.
*custos:GG	*	*	*	*	*
1D	-ta-	1d	-ta-	1A	-ta-
!LO:LB:g=original	!	!	!	!	!
=11-	=11-	=11-	=11-	=11-	=11-
2GG/	-te	1B	-te	1G,<	-te
2G\	Nos	.	.	.	.
2F\	li-	2r	.	1c,<	Nos
2A\	-be-	2A/	Nos	.	.
=12-	=12-	=12-	=12-	=12-	=12-
1G	-ra-	2B\	li-	1B	li-
.	.	2G/	-be-	.	.
*	*	*	*	*custos:c	*
1D	-uit	2.A/	-ra-	1d	-be-
.	.	4G/	.	.	.
!	!	!	!	!LO:LB:g=original	!
=13-	=13-	=13-	=13-	=13-	=13-
1r	.	4A/	.	1c	-ra-
.	.	4B\	.	.	.
.	.	1c	.	.	.
2r	.	.	.	1G,<	-uit
2G\	à	2B\	.	.	.
=14-	=14-	=14-	=14-	=14-	=14-
2E\	Di-	2c\	-uit	1c,<	de
2F\	-a-	2A/	a	.	.
2D/	-bo-	2B\	Di-	1B	Di-
2E\	-li-	1G/	-a-	.	.
=15-	=15-	=15-	=15-	=15-	=15-
1C	-ca	.	.	1c	-a-
*	*	*custos:d	*	*	*
.	.	2G/	.	.	.
!	!	!LO:LB:g=original	!	!	!
1D	po-	2.d\	-bo-	1A	-bo-
.	.	4d\	-li-	.	.
=16-	=16-	=16-	=16-	=16-	=16-
2E\	-te-	2B\	-ca	1G	-li-
2E\	-ſta-	2c\	po-	.	.
*custos:E	*	*	*	*	*
1D	-te	1A	-te-	1F,<	-ca
!LO:LB:g=original	!	!	!	!	!
=17-	=17-	=17-	=17-	=17-	=17-
2r	.	2.B\	-ſta-	1G	po-
2E\	po-	.	.	.	.
.	.	4c\	.	.	.
2D/	-te-	2d\	.	1A	-te-
(<2C/	-ſta-	2e\	.	.	.
=18-	=18-	=18-	=18-	=18-	=18-
1D)	.	1d	.	1A	-sta-
!LO:TX:t=P:global:problem=przecinki oddechowe jako rozdzielacze słów	!	!	!	!	!
2GG,</	-te	2B\	-te	[1G;;l	-te
*	*ij	*	*	*	*
2GG/	po-	2B\	po-	.	.
=19-	=19-	=19-	=19-	=19-	=19-
1C	-te-	1c	-te-	00G]	.
1C	-ſta-	1c	-ſta-	.	.
=20-	=20-	=20-	=20-	=20-	=20-
!LO:TX:t=P:problem=kreska pseudotaktowa	!	!	!	!	!
0GG;<l	-te	0B;;l	-te	.	.
*	*Xij	*	*	*	*
!	!	!LO:LB:g=original	!	!LO:LB:g=original	!
=21-	=21-	=21-	=21-	=21-	=21-
*	*	*M2/1	*	*M2/1	*
*	*	*met(C|)	*	*met(C)	*
1rBB	.	0rA	.	1D	Hu-
1GG	Hu-	.	.	1D,<	-ic
=22-	=22-	=22-	=22-	=22-	=22-
1GG	-ic	1D	Hu-	1G	o-
1D	o-	1D	-ic	1A	-por-
=23-	=23-	=23-	=23-	=23-	=23-
1E	-por-	1G	o-	1G,<	-tet
2D/	-tet	1A	-por-	1D,<	Vt
*custos:E	*	*	*	*	*
2F\	Ut	.	.	.	.
!LO:LB:g=original	!	!	!	!	!
=24-	=24-	=24-	=24-	=24-	=24-
1E	Ca-	2G/	-tet	1G	Ca-
.	.	2E/	Vt	.	.
1D	-na-	1F	Ca-	1A	-na-
=25-	=25-	=25-	=25-	=25-	=25-
1C	-mus	2.G/	-na-	1c,<	-mus
.	.	4A/	.	.	.
1E	cum	2B\	.	1G,<	Cum
.	.	1c\	.	.	.
=26-	=26-	=26-	=26-	=26-	=26-
1D	An-	.	.	1F	An-
.	.	2B\	.	.	.
*lig	*	*	*	*	*
*	*	*	*	*lig	*
*	*	*custos:A	*	*	*
1C	-ge-	1c	.	1E	-ge-
!	!	!LO:LB:g=original	!	!	!
=27-	=27-	=27-	=27-	=27-	=27-
!	!	!LO:TX:t=P:global:problem=przecinki oddechowe jako rozdzielacze słów	!	!	!
1D	.	2A,</	-mus	1F	.
.	.	2A/	Cum	.	.
*Xlig	*	*	*	*Xlig	*
*	*	*	*	*custos:G	*
2GG,</	lis	2B\	An-	1D,<	-lis
2D/	Sem-	1d\	-ge-	.	.
!	!	!	!	!LO:LB:g=original	!
=28-	=28-	=28-	=28-	=28-	=28-
1E	-per	.	.	1G	Sem-
.	.	2c\	.	.	.
1D	glo-	2d\	-lis	1A,<	-per
.	.	2d\	Sem-	.	.
=29-	=29-	=29-	=29-	=29-	=29-
1G	-ri-	1B	-per	1G	Glo-
1C	-a	1G	.	1c	-ri-
=30-	=30-	=30-	=30-	=30-	=30-
2.D/	in	2.d\	glo-	1A,<	-a
4C/	.	4d\	-ri-	.	.
!	!	!	!	!LO:N:acc=#	!
2BB/	.	1G	-a	1Bn,<	in
2GG/	ex-	.	.	.	.
=31-	=31-	=31-	=31-	=31-	=31-
*custos:GG	*	*	*	*	*
1D	-cel-	2r	.	1A	ex-
.	.	2A/	in	.	.
!LO:LB:g=original	!	!	!	!	!
2GG,</	-ſis	1.d	ex-	1G	-cel-
2GG/	in	.	.	.	.
=32-	=32-	=32-	=32-	=32-	=32-
1.G	ex-	.	.	000G;;l	-sis.
*	*	*custos:B	*	*	*
.	.	2c\	.	.	.
!	!	!LO:PB:g=original	!	!	!
.	.	2B\	.	.	.
2F\	.	2A/	-cel-	.	.
=33-	=33-	=33-	=33-	=33-	=33-
2E\	.	2G,</	-ſis	.	.
*	*	*	*ij	*	*
2D/	.	2B\	in	.	.
2C/	.	2c\	ex-	.	.
2BB/	.	2d\	.	.	.
=34-	=34-	=34-	=34-	=34-	=34-
0C	-cel-	2.e\	.	.	.
.	.	4d\	.	.	.
.	.	1c	-cel-	.	.
=35-	=35-	=35-	=35-	=35-	=35-
0GG;;l	-ſis.	0B;;l	-ſis	.	.
*	*	*	*Xij	*	*
=-	=-	=-	=-	=-	=-
*-	*-	*-	*-	*-	*-
!!!system-decoration: [(s1,s2,s3)]
!!!RDF**kern: l = terminal long
!!!RDF**kern: > = above
!!!RDF**kern: < = below
!!!EED: Antoni Szymański
!!!EST: 2021-03-21
!!!AIN: 1 empty 1 tenor 1 vox
!!!ENC: Andrzej Kubiczek
!!!END: 2021-03-07
